X:1
T:Title
%%score { ( 1 3 ) | ( 2 4 ) }
L:1/8
M:4/4
K:C
V:1 treble nm="Grand Piano"
V:3 treble 
V:2 bass 
V:4 bass 
V:1
 z4 z2[Q:1/4=110] [EG]2 | [Ec]2 [Ge]2 [Fd]3 [FB] | [Ec]6 [Ec]2 | B2 G2 d3 G | [Ee]6 [EG]2 | %5
 [Ec]2 [Ge]2 [Gd]3 [FB] | [Ec]6 [Gc]2 | B2 A2 G2 ^F2 | G6 G2 | d3 e f2 B2 | %10
 [Ec]3 [Fd] [Ge]2 [EG]2 | [FA]3 [GB] [Fc]2 [Ff]2 |[M:7/8] e2 [Fd]2 [Ec]3 |[M:1/4] c2 | %14
[M:4/4] B6 z2 | c6 z2 | d6 z2 | e6 z2 | B6 z2 | c6 z2 | [Ge]2 [DFd]2 [Ec]2 [DFB]2 | %21
[M:3/4] [CEc]6 |] %22
V:2
 z4 z2 [C,C]2 | [C,C]2 [C,G,]2 [G,,G,]3 [G,,G,] | [C,G,]6 [C,C]2 | %3
 [G,DF]2 [G,B,F]2 [G,B,F]3 [G,B,F] | [C,C]6 [C,C]2 | [C,C]2 [C,G,]2 [G,,G,]3 [G,,G,] | %6
 [C,G,]6 [E,G,]2 | [D,D]2 [D,CD]2 [D,B,D]2 [D,CD]2 | [G,B,D]6 [G,B,F]2 | %9
 [G,B,F]3 [G,CG] [G,DG]2 [G,DF]2 | [C,C]3 [C,C] [C,C]2 [C,C]2 | [F,C]3 [F,C] [F,A,]2 [D,G,]2 | %12
[M:7/8] [G,G]2 [G,,G,]2 [C,G,]3 |[M:1/4][K:treble] E2 |[M:4/4] D2 G,2 G,2 F2 | %15
 E6[K:bass][K:treble] z2 | F6 z2 | G6[K:bass] z2 | D6[K:treble] z2 | E6[K:bass] z2 | %20
 [E,C]2 F,2 G,2 G,,2 |[M:3/4] C,6 |] %22
V:3
 x8 | x8 | x8 | x8 | x8 | x8 | x8 | x8 | x8 | x8 | x8 | x8 |[M:7/8] x7 |[M:1/4] x2 | %14
[M:4/4] z2 D2 D2 d2 | z2 C2 C2 e2 | z2 D2 D2 f2 | z2 C2 C2 c2 | z2 G,2 G,2 d2 | z2 C2 C2 [Ff]2 | %20
 x8 |[M:3/4] x6 |] %22
V:4
 x8 | x8 | x8 | x8 | x8 | x8 | x8 | x8 | x8 | x8 | x8 | x8 |[M:7/8] x7 |[M:1/4][K:treble] x2 | %14
[M:4/4] x8 | z2[K:bass] C,2 C,2[K:treble] G2 | z2 G,2 G,2 A2 | z2[K:bass] C,2 C,2 E2 | %18
 z2 G,,2 G,,2[K:treble] F2 | z2[K:bass] C,2 C,2 [D,B,]2 | x8 |[M:3/4] x6 |] %22

